!!!!SEGMENT: pl-kk--kk-i-1--056-001_anonim--feria-tertia-kyrie.krn
!!!cenid: 15xx:779
!!!COM: Anonim
!!!COM-rismID: pe30004985
!!!CDT:
!!!CNT:
!!!OPR: Feria tertia
!!!OTL: Kyrie
!!!OMV: 001
!!!PDT:
!!!AGN:
!!!SMS-siglum: PL-Kk
!!!SMS-shelfmark: Kk.I.1
!!!SMS-shelfwork: 056-001 M
!!!SMS-variant:
!!!SMS-altvar:
!!!NIFC-rismSourceID: 300258010
!!!NIFC-islandoraID: pl-kk:1
!!!URL-pdf-islandora: https://repozytorium.nifc.pl/islandora/object/pl-kk%3A1/datastream/PDF/view
!!!URL-scan: https://polish.musicsources.pl/pl/lokalizacje/galeria/rekopisy/5736 @EN{Scan on Polish Music Sources Website} @PL{Skany w portalu Dziedzictwo Muzyki Polskiej w otwartym dostępie}
!!!ONB-nifc: UWAGA: Cantus (s. 173v-176v, skan 0176-0179), Altus (s. 170r-173r, skan 0363-0366), Tenor (s. 146v-148v, skan 0537-0539), Bassus (s. 159v-162r, skan 0722-0724). Części Mszy: 1. Kyrie, 2. Sanctus, 3. Agnus Dei
!!!AIN: 1 alto 1 bass 1 soprn 1 tenor
!!!key: F
**kern	**text	**kern	**text	**kern	**text	**kern	**text
*part4	*part4	*part3	*part3	*part2	*part2	*part1	*part1
*staff4	*staff4	*staff3	*staff3	*staff2	*staff2	*staff1	*staff1
*I"BASSVS	*	*I"TENOR	*	*I"ALTVS	*	*I"CANTVS	*
*I'B	*	*I'T	*	*I'A	*	*I'S	*
*ICvox	*	*ICvox	*	*ICvox	*	*ICvox	*
*Ibass	*	*Itenor	*	*Ialto	*	*Isoprn	*
*clefF3	*	*clefC3	*	*clefC3	*	*clefC2	*
*k[b-]	*	*k[b-]	*	*k[b-]	*	*k[b-]	*
*F:	*	*F:	*	*F:	*	*F:	*
*M2/1	*	*M2/1	*	*M2/1	*	*M2/1	*
*met(C|)	*	*met(C|)	*	*met(C|)	*	*met(C|)	*
=1	=1	=1	=1	=1	=1	=1	=1
!LO:TX:t=P:problem= Bassus zapisany w kluczu barytonowym	!	!LO:TX:t=P:problem= Cantus zapisany w kluczu mezzosopranowym	!	!	!	!	!
!	!	!LO:TX:t=P:problem= Tenor zapisany w kluczu altowym	!	!	!	!	!
!	!	!LO:TX:a:i:t=Feria Tertia.	!	!	!	!	!
!LO:TX:t=P:sześciolinia:problem	!	!LO:TX:t=P:sześciolinia:problem	!	!LO:TX:t=P:sześciolinia:problem	!	!LO:TX:t=P:sześciolinia:problem	!
2r	.	1F	Kÿ-	1.A	Kÿ-	1.c	Kÿ-
2.FF/	Kÿ-	.	.	.	.	.	.
.	.	1F	-ri-	.	.	.	.
4GG/	.	.	.	.	.	.	.
4AA/	.	.	.	2A/	-rie	2c/	-rie
4BB-/	.	.	.	.	.	.	.
=2	=2	=2	=2	=2	=2	=2	=2
2C/	.	1E	-e	2G/	e-	2c/	e-
2C/	-ri-	.	.	1c	-lei-	2c/	-lei-
*	*	*lig	*	*	*	*	*
1GG	-e	1D	.	.	.	1d	-son.
!	!	!	!	!LO:N:acc=#	!	!	!
!	!	!	!	!LO:TX:t=P:problem=# above	!	!	!
.	.	.	.	2Bn\	-son.	.	.
=3	=3	=3	=3	=3	=3	=3	=3
2.C/	e-	1E	.	1c	.	1G	.
4C/	-leÿ-	.	.	.	.	.	.
*	*	*Xlig	*	*	*ij	*	*
1FF	-son	0F	e-	1.A	Kÿ-	2r	.
.	.	.	.	.	.	1c	.
=4	=4	=4	=4	=4	=4	=4	=4
2r	.	.	.	.	.	.	.
1F	.	.	.	2A/	-ri-	2f\	.
!	!	!	!	!LO:N:acc=#	!	!	!
!	!	!	!	!LO:TX:t=P:problem=# above	!	!	!
.	.	1G	.	2Bn\	-e	2d\	.
2E\	.	.	.	2c\	e-	2e\	.
=5	=5	=5	=5	=5	=5	=5	=5
*	*	*lig	*	*	*	*	*
2F\	.	1A	.	1F	-lei-	2c/	.
2D/	.	.	.	.	.	2d/	.
!	!	!	!	!	!	!LO:TX:t=P:problem=sklejenie karty, nuty niewidoczne	!
2.BB-/	.	1B-X	.	2D/	-son	1ryy	.
*	*	*	*	*	*Xij	*	*
.	.	.	.	1d	Kÿ-	.	.
4C/	.	.	.	.	.	.	.
*	*	*Xlig	*	*	*	*	*
=6	=6	=6	=6	=6	=6	=6	=6
4D/	.	1A	.	.	.	2ryy	.
4E/	.	.	.	.	.	.	.
2F\	.	.	.	2c\	-ri-	1f	.
1C	.	1G	.	1c	-e	.	.
.	.	.	.	.	.	2e\	.
=7	=7	=7	=7	=7	=7	=7	=7
*custos:C	*	*	*	*	*	*	*
1FF	.	1F	.	1A	.	2f\	.
*	*	*	*	*	*	*custos:c	*
.	.	.	.	.	.	2c/	.
!LO:LB:g=original	!	!	!	!	!	!LO:LB:g=original	!
1C	.	1E	.	1G	.	1c	.
=8	=8	=8	=8	=8	=8	=8	=8
2D/	.	1F	.	2F/	.	2A/	.
2AA/	.	.	.	2A/	.	2c/	.
*	*	*lig	*	*	*	*	*
1BB-	.	1D	.	2F/	.	1d	.
*	*	*	*	*custos:A	*	*	*
.	.	.	.	2G/	.	.	.
!	!	!	!	!LO:LB:g=original	!	!	!
=9	=9	=9	=9	=9	=9	=9	=9
!	!	!	!	!	!	!LO:TX:a:i:t=Feria Tertia.	!
1AA	.	1E	.	1A	.	1c	.
*	*	*Xlig	*	*	*	*	*
*	*	*lig	*	*	*	*	*
2GG/	.	1G	.	2B-/	.	2g\	.
1C	.	.	.	1G	.	2e\	.
=10	=10	=10	=10	=10	=10	=10	=10
*	*	*custos:C	*	*	*	*	*
.	.	1E	.	.	.	2c/	.
1AA	.	.	.	1c	.	1e	.
!	!	!LO:LB:g=original	!	!	!	!	!
*	*	*Xlig	*	*	*	*	*
.	.	1C	.	.	.	.	.
2FF/	.	.	.	2A/	.	1f	.
=11	=11	=11	=11	=11	=11	=11	=11
!LO:TX:t=P:problem=kreska pseudotaktowa	!	!	!	!	!	!	!
*	*	*lig	*	*	*	*	*
1BB-	.	1D	-lei-	2F/	.	.	.
.	.	.	.	2B-/	.	2d/	.
!	!	!	!	!	!	!LO:N:vis=0	!
!	!	!	!	!	!	!LO:TX:t=P:problem= brevis bez kropki	!
1C	.	1E	.	1G	.	0.c	.
*	*	*Xlig	*	*	*	*	*
=12	=12	=12	=12	=12	=12	=12	=12
0FF	.	0F	-son	0A	.	.	.
=13||	=13||	=13||	=13||	=13||	=13||	=13||	=13||
*yyM2/1	*	*M2/1	*	*yyM2/1	*	*yyM2/1	*
*yymet(C|)	*	*met(C|)	*	*yymet(C|)	*	*yymet(C|)	*
0C	CHri-	1c	CHri-	1G	CHri-	1.e	CHri-
.	.	1c	-ste-	2G/	-ste	.	.
.	.	.	.	2.G/	.	2e\	-ste
=14	=14	=14	=14	=14	=14	=14	=14
1G	.	1B-	.	.	.	2.d\	e-
.	.	.	.	4A/	.	.	.
.	.	.	.	4B-/	.	.	.
.	.	.	.	4c/	.	4e\	-le-
2D/	-ste	1A	.	2d\	.	2f\	-i-
1F	.	.	.	2A/	.	2c/	-son.
=15	=15	=15	=15	=15	=15	=15	=15
!	!	!	!	!LO:N:acc=#	!	!	!
!	!	!	!	!LO:TX:t=P:problem=# above	!	!	!
.	.	1G	.	2Bn\	.	2d\	.
2E\	.	.	.	2.c\	.	2e\	.
*	*	*lig	*	*	*	*	*
1D	e-	1F	.	.	.	1.f	.
!	!	!	!	!LO:N:acc=#	!	!	!
.	.	.	.	8Bn\L	.	.	.
!	!	!	!	!LO:TX:t=P:problem=# above	!	!	!
.	.	.	.	8A\J	.	.	.
.	.	.	.	2B\	.	.	.
=16	=16	=16	=16	=16	=16	=16	=16
1C	-leÿ-	1c	.	2c\	.	.	.
.	.	.	.	1G	.	4e\	.
*	*	*	*	*	*	*custos:e	*
.	.	.	.	.	.	4d\	.
!	!	!	!	!	!	!	!
!	!	!	!	!	!	!LO:LB:g=original	!
*lig	*	*Xlig	*	*	*	*	*
1C	-son.	1c	.	.	.	2.e\	.
*	*	*	*	*custos:B-	*	*	*
!	!	!	!	!	!	!	!
.	.	.	.	1c	.	.	.
.	.	.	.	.	.	4f\	.
!	!	!	!	!LO:LB:g=original	!	!	!
=17	=17	=17	=17	=17	=17	=17	=17
*custos:G	*	*	*	*	*	*	*
*	*	*lig	*	*	*	*	*
1G	.	1d	.	.	.	2g\	.
.	.	.	.	4B-/	.	2g\	.
.	.	.	.	4A/	.	.	.
!LO:LB:g=original	!	!	!	!	!	!	!
*Xlig	*	*	*	*	*	*	*
1G	.	1B-	.	4B-/	.	2d\	.
.	.	.	.	4c/	.	.	.
.	.	.	.	2d\	.	4g\	.
.	.	.	.	.	.	4f\	.
*	*	*Xlig	*	*	*	*	*
=18	=18	=18	=18	=18	=18	=18	=18
*	*	*lig	*	*	*	*	*
2.A\	.	1c	.	2c\	.	4e\	.
.	.	.	.	.	.	4d\	.
.	.	.	.	2A/	.	2e\	.
4G\	.	.	.	.	.	.	.
4F\	.	1A	.	2c\	.	4a\	.
4E\	.	.	.	.	.	4g\	.
2D/	.	.	.	1d	.	4f\	.
.	.	.	.	.	.	4e\	.
*	*	*Xlig	*	*	*	*	*
=19	=19	=19	=19	=19	=19	=19	=19
4GG/	.	1B-	.	.	.	1d	.
4AA/	.	.	.	.	.	.	.
4BB-/	.	.	.	4D/	.	.	.
4C/	.	.	.	4E/	.	.	.
*	*	*custos:G	*	*	*	*	*
4D/	.	1A	.	4F/	.	2d\	.
4E/	.	.	.	4G/	.	.	.
2F\	.	.	.	4A/	.	4c/	.
.	.	.	.	4B-/	.	4d/	.
!	!	!LO:LB:g=original	!	!	!	!	!
=20	=20	=20	=20	=20	=20	=20	=20
1C	.	1G	.	1c	.	4e\	.
.	.	.	.	.	.	2f\	.
.	.	.	.	.	.	4e\	.
1FF	.	1F	.	2A/	.	2f\	.
.	.	.	.	2.f\	.	2a\	.
=21	=21	=21	=21	=21	=21	=21	=21
*	*	*lig	*	*	*	*	*
1r	.	1c	.	.	.	1g	.
.	.	.	.	8e\L	.	.	.
.	.	.	.	8d\J	.	.	.
.	.	.	.	2e\	.	.	.
1D	.	1F	.	1f	.	1a	.
*	*	*Xlig	*	*	*	*	*
=22	=22	=22	=22	=22	=22	=22	=22
2.BB-/	.	1B-	.	1.d	.	2r	.
.	.	.	.	.	.	1f	.
4C/	.	.	.	.	.	.	.
4D/	.	1A	.	.	.	.	.
4E/	.	.	.	.	.	.	.
2F\	.	.	.	2c\	.	1f	.
=23	=23	=23	=23	=23	=23	=23	=23
1C	.	1G	.	1c	.	.	.
.	.	.	.	.	.	2e\	.
1FF	.	1F	.	1A	.	2f\	.
*	*	*	*	*	*	*custos:c	*
.	.	.	.	.	.	2c/	.
!	!	!	!	!	!	!LO:LB:g=original	!
=24	=24	=24	=24	=24	=24	=24	=24
1C	.	1E	.	1G	.	1c	.
*	*	*lig	*	*	*	*	*
2D/	.	1F	.	2F/	.	2A/	.
2AA/	.	.	.	2A/	.	2c/	.
=25	=25	=25	=25	=25	=25	=25	=25
1BB-	.	1D	.	2F/	.	2d/	.
*	*	*	*	*custos:A	*	*	*
.	.	.	.	2G/	.	2d/	.
!	!	!	!	!LO:LB:g=original	!	!	!
*	*	*Xlig	*	*	*	*	*
1AA	.	1E	.	1A	.	1c	.
=26	=26	=26	=26	=26	=26	=26	=26
*	*	*lig	*	*	*	*	*
2GG/	.	1G	.	2B-/	.	2g\	.
*custos:AA	*	*	*	*	*	*	*
1C	.	.	.	1G	.	2e\	.
.	.	1E	.	.	.	2c/	.
!LO:LB:g=original	!	!	!	!	!	!	!
1AA	.	.	.	1c	.	1e	.
*	*	*Xlig	*	*	*	*	*
=27	=27	=27	=27	=27	=27	=27	=27
.	.	1C	-ley-	.	.	.	.
2FF/	.	.	.	2A/	.	1f	.
*	*	*lig	*	*	*	*	*
1BB-	.	1D	-son.	2F/	.	.	.
.	.	.	.	2B-/	.	2d\	.
=28	=28	=28	=28	=28	=28	=28	=28
1C	.	1E	.	1G	.	0c	.
*	*	*Xlig	*	*	*	*	*
!LO:N:vis=0	!	!LO:N:vis=0	!	!LO:N:vis=0	!	!	!
1FF	.	1F	.	1A	.	.	.
=29||	=29||	=29||	=29||	=29||	=29||	=29||	=29||
1.D	Kÿ-	1F	Ky-	1.A	Kÿ-	2.f\	Kÿ-
.	.	.	.	.	.	4e\	-ri-
.	.	1F	-ri-	.	.	4d\	-e
.	.	.	.	.	.	4c\	e-
2D/	-ri-	.	.	2A/	-ri-	1d	-lei-
=30	=30	=30	=30	=30	=30	=30	=30
1AA	-e	1E	-e	1A	-e	.	-son.
.	.	.	.	.	.	2c/	.
*	*	*lig	*	*	*	*	*
1BB-	e-	1D	.	2F/	.	2d/	.
.	.	.	.	2G/	.	1d	.
=31	=31	=31	=31	=31	=31	=31	=31
1AA	-lei-	1E	.	0A	.	.	.
.	.	.	.	.	.	2c#X/	.
!	!	!	!	!	!	!LO:TX:t=P:problem=# below	!
*	*	*Xlig	*	*	*	*	*
2D/	-son.	0F	.	.	.	2d/	.
1D	.	.	.	.	.	2.d/	.
=32	=32	=32	=32	=32	=32	=32	=32
.	.	.	.	2.A/	.	.	.
*	*	*	*	*	*	*custos:f	*
.	.	.	.	.	.	4e/	.
!	!	!	!	!	!	!LO:LB:g=original	!
2D/	.	.	.	.	.	2.f\	.
.	.	.	.	4B-/	.	.	.
1C	.	1G	e-	1.c	.	.	.
.	.	.	.	.	.	8e\L	.
.	.	.	.	.	.	8d\J	.
.	.	.	.	.	.	2e\	.
=33	=33	=33	=33	=33	=33	=33	=33
1F	.	1A	.	.	.	2f\	.
.	.	.	.	1f	.	2.a\	.
2D/	.	1B-X	.	.	.	.	.
.	.	.	.	.	.	8g\L	.
.	.	.	.	.	.	8f\J	.
2E/	.	.	.	4e\	.	2g\	.
.	.	.	.	4d\	.	.	.
=34	=34	=34	=34	=34	=34	=34	=34
*lig	*	*	*	*	*	*	*
*	*	*	*	*custos:A	*	*	*
1F	.	1A	.	0c	.	2a\	.
.	.	.	.	.	.	2.f\	.
1C	.	1G	.	.	.	.	.
.	.	.	.	.	.	8e\L	.
.	.	.	.	.	.	8d\J	.
.	.	.	.	.	.	2e\	.
*Xlig	*	*	*	*	*	*	*
!	!	!	!	!LO:LB:g=original	!	!	!
=35	=35	=35	=35	=35	=35	=35	=35
1FF	.	1F	.	1A	.	2f\	.
.	.	.	.	.	.	2c/	.
1C	.	1E	.	1G	.	1c	.
=36	=36	=36	=36	=36	=36	=36	=36
*	*	*lig	*	*	*	*	*
2D/	.	1F	.	2F/	.	2A/	.
*custos:BB-	*	*	*	*	*	*	*
2AA/	.	.	.	2A/	.	2c/	.
!LO:LB:g=original	!	!	!	!	!	!	!
1BB-	.	1D	.	2F/	.	2d\	.
.	.	.	.	2G/	.	2d\	.
*	*	*Xlig	*	*	*	*	*
=37	=37	=37	=37	=37	=37	=37	=37
1AA	.	1E	.	1A	.	1c	.
*	*	*lig	*	*	*	*	*
2GG/	.	1G	.	2B-\	.	2g\	.
1C	.	.	.	1G	.	2e\	.
=38	=38	=38	=38	=38	=38	=38	=38
.	.	1E	.	.	.	2c/	.
1AA	.	.	.	1c	.	1e	.
*	*	*Xlig	*	*	*	*	*
.	.	1C	.	.	.	.	.
2FF/	.	.	.	2A/	.	1f	.
=39	=39	=39	=39	=39	=39	=39	=39
*	*	*lig	*	*	*	*	*
1BB-	.	1D	-lei	2F/	.	.	.
.	.	.	.	2B-/	.	2d\	.
1C	.	1E	.	1G	.	0.c	.
*	*	*Xlig	*	*	*	*	*
=40	=40	=40	=40	=40	=40	=40	=40
!	!	!LO:TX:t=P:problem=sklejenie karty, nuty niewidoczne	!	!	!	!	!
0FF;	.	0F	.	0A	.	.	.
=41	=41	=41	=41	=41	=41	=41	=41
!	!	!LO:TX:a:i:t=Vltimum.	!	!	!	!LO:TX:a:i:t=Vltimu(m)	!
1FF	Kÿ-	1F	Kÿ-	2.c\	Kÿ-	2.A/	Kÿ-
.	.	.	.	4B-\	-ri-	4B-/	-ri-
2AA/	-ri-	1F	-ri-	2A/	-e	2c/	-e-
2BB-/	-e	.	.	2D/	.	2.d/	.
=42	=42	=42	=42	=42	=42	=42	=42
!	!	!	!	!LO:TX:b:i:t=vltimu(m).	!	!	!
1C	e-	1E	-e-	0G	.	.	.
.	.	.	.	.	.	4c/	.
.	.	.	.	.	.	1c	-le-
1GG	-leÿ-	1D	.	.	.	.	.
.	.	.	.	.	.	2B-/	-i-
=43	=43	=43	=43	=43	=43	=43	=43
*	*	*lig	*	*	*	*	*
1C	-son	1E	.	1G	.	0c	-son.
2r	.	1F	.	2.A/	.	.	.
1F	.	.	.	.	.	.	.
*	*	*	*	*custos:Bn	*	*	*
.	.	.	.	4A/	.	.	.
!	!	!	!	!LO:LB:g=original	!	!	!
*	*	*Xlig	*	*	*	*	*
=44	=44	=44	=44	=44	=44	=44	=44
*	*	*lig	*	*	*	*	*
!	!	!	!	!LO:N:acc=#	!	!	!
!	!	!	!	!LO:TX:t=P:problem=# above	!	!	!
.	.	1G	.	2Bn\	.	2r	.
4E\	.	.	.	1c	.	2g\	.
4D\	.	.	.	.	.	.	.
2.C/	.	1E	.	.	.	2g\	.
.	.	.	.	2c\	.	2g\	.
4BB-/	.	.	.	.	.	.	.
*	*	*Xlig	*	*	*	*	*
=45	=45	=45	=45	=45	=45	=45	=45
*	*	*lig	*	*	*	*	*
2AA/	.	1F	.	2c\	.	2a\	.
1BB-	.	.	.	2d\	.	1f	.
.	.	1D	.	1B-	.	.	.
*custos:C	*	*	*	*	*	*	*
2GG/	.	.	.	.	.	2.g\	.
!LO:TX:a:i:t=Vltimu(m)	!	!	!	!	!	!	!
!LO:LB:g=original	!	!	!	!	!	!	!
*	*	*Xlig	*	*	*	*	*
=46	=46	=46	=46	=46	=46	=46	=46
1C	.	1E	.	2G/	.	.	.
.	.	.	.	.	.	4f\	.
.	.	.	.	4c\	.	4e\	.
.	.	.	.	4B-\	.	4d\	.
2FF/	.	1F	.	4A/	.	2c/	.
.	.	.	.	4G/	.	.	.
2FF/	.	.	.	4A/	.	2.f\	.
.	.	.	.	4B-/	.	.	.
=47	=47	=47	=47	=47	=47	=47	=47
0C	.	1G	.	1c	.	.	.
.	.	.	.	.	.	8e\L	.
.	.	.	.	.	.	8d\J	.
.	.	.	.	.	.	2e\	.
.	.	1E	.	1G	.	0c	.
=48	=48	=48	=48	=48	=48	=48	=48
2FF/	.	1F	.	1A	.	.	.
1F	.	.	.	.	.	.	.
.	.	0c	.	1A	.	2r	.
2F\	.	.	.	.	.	1f	.
=49	=49	=49	=49	=49	=49	=49	=49
1C	.	.	.	2G/	.	.	.
*	*	*	*	*	*	*custos:d	*
.	.	.	.	2.G/	.	2e\	.
!	!	!	!	!	!	!LO:LB:g=original	!
1G	.	1B-	.	.	.	2.d/	.
.	.	.	.	4A/	.	.	.
.	.	.	.	4B-\	.	.	.
.	.	.	.	4c\	.	4e/	.
=50	=50	=50	=50	=50	=50	=50	=50
2D/	.	1A	.	2d\	.	2f\	.
1F	.	.	.	2A\	.	2c/	.
!	!	!	!	!LO:N:acc=#	!	!	!
!	!	!	!	!LO:TX:t=P:problem=# above	!	!	!
.	.	1G	.	2Bn\	.	2d\	.
2E\	.	.	.	2c\	.	2e\	.
=51	=51	=51	=51	=51	=51	=51	=51
1D	.	1F	.	2.A/	.	1f	.
.	.	.	.	8G/L	.	.	.
.	.	.	.	8F/J	.	.	.
1C	.	1c	.	2G/	.	1e	.
.	.	.	.	2.c\	.	.	.
=52	=52	=52	=52	=52	=52	=52	=52
*	*	*lig	*	*	*	*	*
1.G	.	1d	.	.	.	2r	.
.	.	.	.	8B-\L	.	.	.
*	*	*	*	*custos:B-	*	*	*
.	.	.	.	8A\J	.	.	.
!	!	!	!	!LO:LB:g=original	!	!	!
.	.	.	.	4B-\	.	2g\	.
.	.	.	.	4c\	.	.	.
*	*	*custos:c	*	*	*	*	*
.	.	1B-	.	1d	.	2g\	.
2G\	.	.	.	.	.	2g\	.
!	!	!LO:LB:g=original	!	!	!	!	!
*	*	*Xlig	*	*	*	*	*
=53	=53	=53	=53	=53	=53	=53	=53
*	*	*lig	*	*	*	*	*
2C/	.	1c	.	2c\	.	4e\	.
.	.	.	.	.	.	4f\	.
2C/	.	.	.	2e-X\	.	1g	.
1D	.	1A	.	2.d\	.	.	.
.	.	.	.	.	.	2f#X\	.
.	.	.	.	4c\	.	.	.
!	!	!	!	!	!	!LO:TX:t=P:problem=# above	!
*	*	*Xlig	*	*	*	*	*
=54	=54	=54	=54	=54	=54	=54	=54
1GG	.	1G	.	4B-\	.	2g\	.
.	.	.	.	4A\	.	.	.
!	!	!	!	!LO:N:acc=#	!	!	!
!	!	!	!	!LO:TX:t=P:problem=# above	!	!	!
.	.	.	.	2Bn\	.	4g\	.
.	.	.	.	.	.	4f\	.
*	*	*lig	*	*	*	*	*
1r	.	1c	.	2c\	.	4e\	.
.	.	.	.	.	.	4d\	.
.	.	.	.	2r	.	2e\	.
=55	=55	=55	=55	=55	=55	=55	=55
1r	.	1F	.	4f\	.	4a\	.
.	.	.	.	4e\	.	4g\	.
.	.	.	.	4d\	.	4f\	.
.	.	.	.	4c\	.	4e\	.
*	*	*Xlig	*	*	*	*	*
2.BB-/	.	1B-	.	4B-/	.	2d\	.
.	.	.	.	4A/	.	.	.
.	.	.	.	2G/	.	1g	.
4C/	.	.	.	.	.	.	.
=56	=56	=56	=56	=56	=56	=56	=56
4D/	.	1A	.	2.d\	.	.	.
*custos:F	*	*	*	*	*	*	*
4E/	.	.	.	.	.	.	.
!LO:LB:g=original	!	!	!	!	!	!	!
2F\	.	.	.	.	.	1f	.
.	.	.	.	4c\	.	.	.
1C	.	1G	.	1c	.	.	.
*	*	*	*	*	*	*custos:f	*
.	.	.	.	.	.	2e\	.
!	!	!	!	!	!	!LO:LB:g=original	!
=57	=57	=57	=57	=57	=57	=57	=57
1FF	.	1F	.	1A	.	2f\	.
.	.	.	.	.	.	2c/	.
!	!	!	!	!	!	!LO:TX:t=P:problem=poprawka wysokości	!
1C	.	1E	.	1G	.	1c	.
=58	=58	=58	=58	=58	=58	=58	=58
*	*	*lig	*	*	*	*	*
2D/	.	1F	.	2F/	.	2A/	.
2AA/	.	.	.	2A/	.	2c/	.
1BB-	.	1D	.	2F/	.	2d\	.
.	.	.	.	2G/	.	2d\	.
*	*	*Xlig	*	*	*	*	*
=59	=59	=59	=59	=59	=59	=59	=59
1AA	.	1E	.	1A	.	1c	.
*	*	*lig	*	*	*	*	*
2GG/	.	1G	.	2B-\	.	2g\	.
*	*	*	*	*custos:c	*	*	*
1C	.	.	.	1G	.	2e\	.
!	!	!	!	!LO:LB:g=original	!	!	!
=60	=60	=60	=60	=60	=60	=60	=60
.	.	1E	.	.	.	2c/	.
1AA	.	.	.	1c	.	1e	.
*	*	*Xlig	*	*	*	*	*
.	.	1C	.	.	.	.	.
2FF/	.	.	.	2A/	.	1f	.
=61	=61	=61	=61	=61	=61	=61	=61
*	*	*lig	*	*	*	*	*
1BB-	.	1D	-leÿ-	2F/	.	.	.
.	.	.	.	2B-/	.	2d\	.
!	!	!	!	!	!	!LO:TX:t=P:problem= brevis bez kropki	!
!	!	!	!	!	!	!LO:N:vis=0	!
1C	.	1E	.	1G	.	0.c	.
*	*	*Xlig	*	*	*	*	*
=62	=62	=62	=62	=62	=62	=62	=62
0FF	.	0F	-son.	0A	.	.	.
==	==	==	==	==	==	==	==
*-	*-	*-	*-	*-	*-	*-	*-
!!!system-decoration: ([s1,s2,s3,s4)]
!!!ENC: Mateusz Solarz
!!!END: 2022-03-21
!!!ENC: Jan Barakat
!!!END: 2022-03-22
